X:5006
T:Fandangu (CT 334)
R:Fandangu
C:Tradicional
S:Msica Tradicional Asturiana, (C) Tello & Tito. Asturies, 2001.
S:http://pagina.de/MusTradAst <telloytito@asturies.org>
N:Baile de gaita (Fandangos), transcrito en L.leitariegos.
N:Lo hemos odo ejecutado con un acorden sin acompaamiento de tambor, y los bailadores los repetan siempre de una misma manera, esto es, sin hacer mudanzas.
O:L.leitariegos
A:Asturies
Z:Cancioneru de Torner 334
M:3/8
L:1/8
Q:3/8=80
K:G
|:B G/B/d/e/|A A/A/ A|FGA|(~B2 G)|B G/B/d/e/|A A/A/ A|FGA|G3:|
Bcd|e>ee|ABc|d>dd|Bcd|{ef}e>ce|ABc|{de}d>Bd|
B G/B/d/e/|A A/A/ A|FGA|(~B2 G)|B G/B/d/e/|A A/A/ A|FGA|G3|
Bcd|e2 f|edc|d2 d|Bcd|e2 f|age|d3|
GBd|G2 d|cBA|d2 d|GBd|A2 d|cBA|d3|
|:B G/B/d/e/|A A/A/ A|FGA|(~B2 G)|B G/B/d/e/|A A/A/ A|FGA|G3:|
Bcd|e>ee|ABc|d>dd|Bcd|{ef}e>ce|ABc|{de}d>Bd|
B G/B/d/e/|A A/A/ A|FGA|(~B2 G)|B G/B/d/e/|A A/A/ A|FGA|G3||
